static/images/mobile/copyright/wikipedia-wordmark-la.svg

<?xml version="1.0" encoding="UTF-8"?>
<svg xmlns="http://www.w3.org/2000/svg" width="112" height="18" viewBox="0 0 112 18">
	<title>
		la-wordmark
	</title>
	<g id="Page-1" fill="none" fill-rule="evenodd" stroke="none" stroke-width="1">
		<path id="la-wordmark" fill="#000" fill-rule="nonzero" d="M0.0537313433,0.295522388 C0.0537313433,0.295522388 2.14925473,0.349253731 3.19701493,0.349253731 C4.13731244,0.349253731 6.25970149,0.295522388 6.25970149,0.295522388 L6.25970149,0.295522388 L6.31343284,0.349253731 L6.31343284,0.859701493 C6.31343284,0.994029851 6.23283483,1.04776119 6.09850746,1.07462687 L6.09850746,1.07462687 L5.64179104,1.12835821 C4.37910448,1.28955224 4.1641791,1.50447761 4.45970149,2.31044776 L4.45970149,2.31044776 L8.70447761,14.2656716 L8.8119403,14.2656716 L13.0029851,2.49850746 C13.3791035,1.47761194 12.8149244,1.15522388 11.8208955,1.10149254 L11.8208955,1.10149254 L11.3910448,1.07462687 C11.2835821,1.07462687 11.1761194,0.994029851 11.1761194,0.859701493 L11.1761194,0.859701493 L11.1761194,0.349253731 L11.2298507,0.295522388 C11.2298507,0.295522388 13.1373144,0.349253731 14.1850746,0.349253731 C15.1253721,0.349253731 16.6567164,0.295522388 16.6567164,0.295522388 L16.6567164,0.295522388 L16.7104478,0.349253731 L16.7104478,0.859701493 C16.7104478,0.994029851 16.6298498,1.07462687 16.4955224,1.07462687 C15.0179114,1.15522388 14.561193,1.88059701 14.1850746,2.84776119 L14.1850746,2.84776119 L8.73134328,17.3820896 C8.57014925,17.7850746 8.38208856,18 8.08656716,18 C7.81791045,18 7.60298408,17.7850746 7.46865672,17.3820896 L7.46865672,17.3820896 L2.25671642,2.74029851 C1.85373134,1.6119403 1.61193831,1.20895522 0.214925373,1.07462687 C0.107462687,1.07462687 8.40216785e-13,0.994029851 8.40216785e-13,0.859701493 L8.40216785e-13,0.859701493 L8.40216785e-13,0.349253731 Z M30.158395,5.05074627 C32.3076468,5.05074627 33.516605,5.48059701 34.5374995,5.48059701 C34.5643652,6.68955224 34.6986935,7.81791045 34.8598876,8.91940299 L34.8598876,8.91940299 L34.1613801,9 C33.838992,7.11940299 32.6569005,5.82985075 30.3195891,5.82985075 C28.3046657,5.82985075 26.2091413,6.87761194 26.2091413,11.3910448 C26.2091413,14.0507463 27.1763085,17.0328358 30.4270517,17.0328358 C32.2270498,17.0328358 33.1673512,16.4955224 34.4031711,15.0447761 L34.4031711,15.0447761 L34.9404846,15.4746269 C33.677799,17.1671642 32.3882438,17.9462687 30.2927234,17.9462687 C26.1554139,17.9462687 23.8718279,14.7492537 23.8718279,11.6597015 C23.8718279,7.73731343 26.6121303,5.05074627 30.158395,5.05074627 Z M16.2608667,5.26567164 C16.2608667,5.26567164 18.3832557,5.31940299 19.2160905,5.31940299 L19.3230108,5.31908003 C20.1252493,5.31462933 22.0101204,5.26567164 22.0101204,5.26567164 L22.0101204,5.26567164 L22.0369861,5.31940299 L22.0369861,5.91044776 C22.0369861,5.99104478 21.9832547,6.04477612 21.875792,6.04477612 L21.875792,6.04477612 L21.3116129,6.09850746 C20.4787781,6.17910448 20.1832547,6.39402985 20.1832547,6.93134328 L20.1832547,6.93134328 L20.1832547,15.8776119 C20.1832547,16.4686567 20.4519124,16.8179104 21.3116129,16.8985075 L21.3116129,16.8985075 L21.875792,16.9522388 C21.9563891,16.9522388 22.0369861,17.0059701 22.0369861,17.1134328 L22.0369861,17.1134328 L22.0369861,17.6776119 L22.0101204,17.7313433 C22.0101204,17.7313433 19.9683294,17.6776119 19.1354935,17.6776119 L19.0249125,17.6779349 C18.1970832,17.6823856 16.2877323,17.7313433 16.2877323,17.7313433 L16.2877323,17.7313433 L16.234001,17.6776119 L16.234001,17.1134328 C16.234001,17.0059701 16.314599,16.9522388 16.4220607,16.9522388 L16.4220607,16.9522388 L16.9593741,16.8985075 C17.8459413,16.8179104 18.114598,16.3880597 18.114598,15.8776119 L18.114598,15.8776119 L18.114598,6.93134328 C18.114598,6.34029851 17.79221,6.17910448 16.9593741,6.09850746 L16.9593741,6.09850746 L16.4220607,6.04477612 C16.314598,6.04477612 16.234001,6.01791045 16.234001,5.93731343 L16.234001,5.93731343 L16.234001,5.31940299 Z M103.120509,1.95399252e-14 C103.496629,1.95399252e-14 103.630957,0.268656716 103.845883,0.805970149 L103.845883,0.805970149 L109.353345,15.3671642 C109.729465,16.4149254 110.266778,16.8179104 111.341405,16.9253731 L111.341405,16.9253731 L111.636927,16.9522388 C111.771256,16.9522388 111.905584,17.0328358 111.905584,17.1671642 L111.905584,17.1671642 L111.905584,17.6776119 L111.824987,17.7313433 C111.824987,17.7313433 109.75633,17.6776119 108.708569,17.6776119 L108.587886,17.677863 C107.561856,17.6818245 105.135435,17.7313433 105.135435,17.7313433 L105.135435,17.7313433 L105.108569,17.6776119 L105.108569,17.1671642 C105.108569,17.0328358 105.1623,16.9522388 105.296629,16.9522388 L105.296629,16.9522388 L106.048868,16.8985075 C107.069763,16.8179104 107.445883,16.4955224 107.177226,15.7432836 L107.177226,15.7432836 L105.53842,11.2029851 L99.9503602,11.2029851 C99.3055841,11.2029851 99.14439,11.3104478 99.0100617,11.6597015 L99.0100617,11.6597015 L97.4518527,15.5552239 C97.183196,16.2268657 97.5324498,16.8179104 98.5264796,16.8985075 L98.5264796,16.8985075 L99.3055841,16.9522388 C99.4130468,16.9522388 99.5205095,17.0328358 99.5205095,17.1671642 L99.5205095,17.1671642 L99.5205095,17.6776119 L99.4667781,17.7313433 C99.4667781,17.7313433 96.5384199,17.6776119 95.8936438,17.6776119 C95.1951363,17.6776119 93.4757333,17.7313433 93.4757333,17.7313433 L93.4757333,17.7313433 L93.422002,17.6776119 L93.422002,17.1671642 C93.422002,17.0328358 93.502599,16.9522388 93.6369274,16.9522388 C94.8190169,16.8716418 95.4906587,16.6567164 96.2428975,14.9373134 L96.2428975,14.9373134 L102.207077,0.967164179 C102.502599,0.268656716 102.717524,1.95399252e-14 103.120509,1.95399252e-14 Z M86.7513443,5.26567164 C86.7513443,5.26567164 88.8737333,5.31940299 89.7065692,5.31940299 L89.8134894,5.31908003 C90.6157279,5.31462933 92.500599,5.26567164 92.500599,5.26567164 L92.500599,5.26567164 L92.5274647,5.31940299 L92.5274647,5.91044776 C92.5274647,5.99104478 92.4737333,6.04477612 92.3662706,6.04477612 L92.3662706,6.04477612 L91.8020915,6.09850746 C90.9692557,6.17910448 90.6737333,6.39402985 90.6737333,6.93134328 L90.6737333,6.93134328 L90.6737333,15.8776119 C90.6737333,16.4686567 90.94239,16.8179104 91.8020915,16.8985075 L91.8020915,16.8985075 L92.3662706,16.9522388 C92.4468677,16.9522388 92.5274647,17.0059701 92.5274647,17.1134328 L92.5274647,17.1134328 L92.5274647,17.6776119 L92.500599,17.7313433 C92.500599,17.7313433 90.458808,17.6776119 89.6259721,17.6776119 L89.5153909,17.6779349 C88.6875608,17.6823856 86.77821,17.7313433 86.77821,17.7313433 L86.77821,17.7313433 L86.7244786,17.6776119 L86.7244786,17.1134328 C86.7244786,17.0059701 86.8050756,16.9522388 86.9125383,16.9522388 L86.9125383,16.9522388 L87.4498527,16.8985075 C88.3364199,16.8179104 88.6050766,16.3880597 88.6050766,15.8776119 L88.6050766,15.8776119 L88.6050766,6.93134328 C88.6050766,6.34029851 88.2826886,6.17910448 87.4498527,6.09850746 L87.4498527,6.09850746 L86.9125383,6.04477612 C86.8050756,6.04477612 86.7244786,6.01791045 86.7244786,5.93731343 L86.7244786,5.93731343 L86.7244786,5.31940299 Z M36.9873134,5.26567164 C36.9873134,5.26567164 39.1097015,5.31940299 39.9425373,5.31940299 L40.0494574,5.31908003 C40.8516952,5.31462933 42.7365672,5.26567164 42.7365672,5.26567164 L42.7365672,5.26567164 L42.7634328,5.31940299 L42.7634328,5.91044776 C42.7634328,5.99104478 42.7097005,6.04477612 42.6022388,6.04477612 L42.6022388,6.04477612 L42.0380597,6.09850746 C41.2052239,6.17910448 40.9097015,6.39402985 40.9097015,6.93134328 L40.9097015,6.93134328 L40.9097015,15.8776119 C40.9097015,16.4686567 41.1783582,16.8179104 42.0380597,16.8985075 L42.0380597,16.8985075 L42.6022388,16.9522388 C42.6828358,16.9522388 42.7634328,17.0059701 42.7634328,17.1134328 L42.7634328,17.1134328 L42.7634328,17.6776119 L42.7365672,17.7313433 C42.7365672,17.7313433 40.6947751,17.6776119 39.8619403,17.6776119 L39.7513591,17.6779349 C38.923529,17.6823856 37.0141791,17.7313433 37.0141791,17.7313433 L37.0141791,17.7313433 L36.9604478,17.6776119 L36.9604478,17.1134328 C36.9604478,17.0059701 37.0410448,16.9522388 37.1485075,16.9522388 L37.1485075,16.9522388 L37.6858209,16.8985075 C38.5723871,16.8179104 38.8410448,16.3880597 38.8410448,15.8776119 L38.8410448,15.8776119 L38.8410448,6.93134328 C38.8410448,6.34029851 38.5186557,6.17910448 37.6858209,6.09850746 L37.6858209,6.09850746 L37.1485075,6.04477612 C37.0410448,6.04477612 36.9604478,6.01791045 36.9604478,5.93731343 L36.9604478,5.93731343 L36.9604478,5.31940299 Z M50.132602,5.26567164 C53.9475234,5.26567164 54.6460348,7.14626866 54.6460348,8.54328358 C54.6460348,10.1552239 53.8669264,12.680597 50.052005,12.680597 C49.3803642,12.680597 48.8430498,12.6268657 48.3594677,12.4119403 L48.3594677,12.4119403 L48.3594677,16.0119403 C48.3594677,16.6029851 48.6818567,16.7373134 49.5415572,16.8716418 L49.5415572,16.8716418 L50.0788706,16.9522388 C50.1863333,16.9791045 50.2669303,17.0059701 50.2669303,17.1134328 L50.2669303,17.1134328 L50.2669303,17.6776119 L50.2400647,17.7313433 C50.2400647,17.7313433 48.09081,17.6776119 47.2579751,17.6776119 L47.1478785,17.6779349 C46.3267253,17.6823856 44.4908109,17.7313433 44.4908109,17.7313433 L44.4908109,17.7313433 L44.4639453,17.6776119 L44.4639453,17.1134328 C44.4639453,17.0059701 44.5176766,16.9791045 44.6251393,16.9522388 L44.6251393,16.9522388 L45.1893184,16.8716418 C46.0221532,16.7641791 46.2908109,16.5223881 46.2908109,16.0119403 L46.2908109,16.0119403 L46.2908109,6.98507463 C46.2908109,6.15223881 45.9415562,6.12537313 44.6788706,6.04477612 C44.5176766,6.04477612 44.4908109,5.9641791 44.4908109,5.91044776 L44.4908109,5.91044776 L44.4908109,5.29253731 L44.5445423,5.26567164 C44.9475274,5.26567164 46.532603,5.31940299 47.3117065,5.31940299 C48.0639443,5.31940299 49.1385731,5.26567164 50.132602,5.26567164 Z M58.4978925,5.26567164 C58.4978925,5.26567164 60.8620736,5.31940299 62.9038627,5.31940299 L66.7067664,5.31904907 C67.5677667,5.31440755 69.2978925,5.26567164 69.2978925,5.26567164 L69.2978925,5.26567164 L69.3516239,5.31940299 C69.3784896,6.47462687 69.5665493,7.52238806 69.754609,8.54328358 L69.754609,8.54328358 L69.0829672,8.65074627 C68.7874448,7.65671642 68.276995,6.23283582 66.557594,6.23283582 L66.557594,6.23283582 L64.676997,6.23283582 C64.1665493,6.23283582 63.8978925,6.39402985 63.8978925,6.85074627 L63.8978925,6.85074627 L63.8978925,11.041791 L65.5366985,11.041791 C66.2620706,11.041791 66.4501313,10.719403 66.5844597,10.1820896 L66.5844597,10.1820896 L66.7187881,9.61791045 C66.7456537,9.51044776 66.7993851,9.45671642 66.8799821,9.45671642 L66.8799821,9.45671642 L67.3366985,9.45671642 C67.3904299,9.45671642 67.4172955,9.48358209 67.4172955,9.53731343 C67.3635642,10.1552239 67.2561015,10.9074627 67.2561015,11.5522388 C67.2561015,12.2238806 67.3366985,12.761194 67.4172955,13.4059701 L67.4172955,13.4059701 L67.3635642,13.4597015 L66.8799821,13.4597015 C66.7725194,13.4597015 66.7187881,13.3791045 66.6919224,13.3253731 L66.6919224,13.3253731 L66.5844597,12.7343284 C66.4501313,12.1701493 66.235205,11.9014925 65.5366985,11.9014925 L65.5366985,11.9014925 L63.8978925,11.9014925 L63.8978925,16.0925373 C63.8978925,16.6029851 64.2202806,16.7641791 64.676997,16.7641791 L64.676997,16.7641791 L66.5844597,16.7641791 C68.2232637,16.7641791 68.8411761,15.6895522 69.2441612,14.3462687 L69.2441612,14.3462687 L69.9426687,14.4268657 C69.6202806,15.7432836 69.4053552,16.8179104 69.3784896,17.6776119 L69.3784896,17.6776119 L62.7774453,17.6779659 C61.7331051,17.6826074 60.2710269,17.7313433 60.2710269,17.7313433 L60.2710269,17.7313433 L60.2441612,17.6776119 L60.2441612,17.0865672 C60.2441612,17.0328358 60.2710269,16.9522388 60.3784896,16.9522388 L60.3784896,16.9522388 L60.835206,16.8985075 C61.6949065,16.7910448 61.9366985,16.5761194 61.9366985,16.038806 L61.9366985,16.038806 L61.9366985,11.8746269 L58.9277433,11.8746269 C58.4172955,11.8746269 58.2561015,12.0089552 58.1486388,12.2238806 L58.1486388,12.2238806 L56.2143104,16.0925373 C55.9725194,16.5761194 56.2949085,16.6567164 57.1008776,16.8985075 L57.1008776,16.8985075 L57.3695343,16.9522388 C57.4501313,16.9791045 57.5307284,17.0328358 57.5307284,17.1134328 L57.5307284,17.1134328 L57.5307284,17.6776119 L57.5038627,17.7313433 C57.5038627,17.7313433 55.3008766,17.6776119 54.7904299,17.6776119 C54.2799821,17.6776119 53.1784896,17.7313433 53.1784896,17.7313433 L53.1784896,17.7313433 L53.1516239,17.6776119 L53.1516239,17.1134328 C53.1516239,17.0328358 53.2053552,16.9522388 53.3128179,16.9522388 C54.1993841,16.8716418 54.7098328,16.4149254 54.9247582,16.038806 C55.4620706,15.1791045 56.6978935,12.8955224 57.5307284,11.2835821 C57.9605781,10.4238806 59.4919224,7.36119403 59.4919224,6.60895522 C59.4919224,6.28656716 59.3038617,6.12537313 58.6053552,6.04477612 C58.4441612,6.01791045 58.4441612,5.9641791 58.4441612,5.93731343 L58.4441612,5.31940299 Z M71.6918756,5.26567164 C71.6918756,5.26567164 74.0560547,5.31940299 74.5396368,5.31940299 C75.0500836,5.31940299 77.387399,5.26567164 78.0859055,5.26567164 C82.5724677,5.26567164 84.7754577,8.05970149 84.7754577,11.6328358 C84.7754577,16.3343284 81.4441114,17.7313433 78.4620249,17.7313433 C76.3127731,17.7313433 75.3724716,17.6776119 74.5396368,17.6776119 C73.7336677,17.6776119 71.6918756,17.7313433 71.6918756,17.7313433 L71.6918756,17.7313433 L71.66501,17.6776119 L71.66501,17.1134328 C71.66501,17.0328358 71.7187413,16.9522388 71.826204,16.9522388 L71.826204,16.9522388 L72.4441144,16.8985075 C73.2500836,16.8179104 73.5187413,16.5761194 73.5187413,15.7432836 L73.5187413,15.7432836 L73.5187413,6.87761194 C73.5187413,6.17910448 73.3306806,6.17910448 72.4441144,6.09850746 L72.4441144,6.09850746 L71.8530697,6.04477612 C71.745607,6.04477612 71.66501,5.99104478 71.66501,5.91044776 L71.66501,5.91044776 L71.66501,5.31940299 Z M77.306801,6.04477612 C76.2590408,6.04477612 75.587398,6.20597015 75.587398,6.87761194 L75.587398,6.87761194 L75.587398,15.7432836 C75.587398,16.4955224 75.7754597,16.9522388 77.8172488,16.9522388 C80.7724697,16.9522388 82.4381443,15.8507463 82.4381443,12.0895522 C82.4381443,9.29552239 81.8202289,6.04477612 77.306801,6.04477612 Z M49.971408,6.04477612 C48.6818577,6.04477612 48.3594677,6.28656716 48.3594677,6.98507463 L48.3594677,6.98507463 L48.3594677,11.6597015 C48.8967811,11.8746269 49.5684239,11.9014925 50.1057363,11.9014925 C51.7176756,11.9014925 52.4967811,10.9343284 52.4967811,8.86567164 C52.4967811,6.55522388 51.4490189,6.04477612 49.971408,6.04477612 Z M61.3456537,6.04477612 C61.076997,6.04477612 60.7277433,6.47462687 60.4322209,7.11940299 L60.4322209,7.11940299 L58.8471463,10.7731343 C58.8202806,10.8268657 58.7934149,10.880597 58.7934149,10.9074627 C58.7934149,11.0149254 58.954609,11.041791 59.3307284,11.041791 L59.3307284,11.041791 L61.9366985,11.041791 L61.9366985,7.17313433 C61.9366985,6.34029851 61.6949075,6.04477612 61.3456537,6.04477612 Z M102.502599,2.90149254 L102.448868,2.90149254 L99.7623005,9.72537313 C99.6548378,9.99402985 99.8428975,10.0746269 100.433942,10.0746269 L100.433942,10.0746269 L105.108569,10.0746269 L102.502599,2.90149254 Z"/>
	</g>
</svg>

<svg xmlns="http://www.w3.org/2000/svg" width="112" height="18"><path fill="#000" fill-rule="nonzero" d="M.054.296s2.095.053 3.143.053C4.137.35 6.26.296 6.26.296l.053.053v.51c0 .135-.08.189-.214.216l-.457.053c-1.263.162-1.478.376-1.182 1.182l4.244 11.956h.108l4.191-11.767c.376-1.021-.188-1.344-1.182-1.398l-.43-.026a.212.212 0 0 1-.215-.215V.35l.054-.054s1.907.053 2.955.053c.94 0 2.472-.053 2.472-.053l.053.053v.51c0 .135-.08.216-.214.216-1.478.08-1.935.806-2.31 1.773L8.73 17.382c-.16.403-.349.618-.644.618-.27 0-.484-.215-.618-.618L2.257 2.74C1.854 1.612 1.612 1.21.215 1.075A.212.212 0 0 1 0 .86V.35zM30.158 5.05c2.15 0 3.359.43 4.38.43.026 1.209.16 2.337.322 3.438L34.16 9c-.322-1.88-1.504-3.17-3.841-3.17-2.015 0-4.11 1.048-4.11 5.561 0 2.66.966 5.642 4.217 5.642 1.8 0 2.74-.537 3.976-1.988l.537.43c-1.262 1.692-2.552 2.471-4.647 2.471-4.138 0-6.421-3.197-6.421-6.286 0-3.923 2.74-6.61 6.286-6.61zm-13.897.215s2.122.053 2.955.053h.107c.802-.004 2.687-.053 2.687-.053l.027.053v.591c0 .081-.054.135-.161.135l-.564.054c-.833.08-1.129.295-1.129.832v8.947c0 .59.269.94 1.129 1.02l.564.054c.08 0 .161.054.161.161v.565l-.027.053s-2.042-.053-2.875-.053h-.11c-.828.004-2.737.053-2.737.053l-.054-.053v-.565c0-.107.08-.16.188-.16l.537-.054c.887-.081 1.156-.51 1.156-1.021V6.93c0-.59-.323-.752-1.156-.832l-.537-.054c-.107 0-.188-.027-.188-.108V5.32zM103.12 0c.376 0 .51.269.725.806l5.507 14.561c.376 1.048.914 1.45 1.988 1.558l.296.027c.134 0 .269.08.269.215v.51l-.081.054s-2.069-.053-3.116-.053h-.121c-1.026.004-3.453.053-3.453.053l-.026-.053v-.51c0-.135.053-.216.188-.216l.752-.053c1.02-.081 1.397-.403 1.128-1.156l-1.639-4.54H99.95c-.644 0-.806.107-.94.457l-1.558 3.895c-.269.672.08 1.263 1.074 1.344l.78.053c.107 0 .215.08.215.215v.51l-.054.054s-2.929-.053-3.573-.053c-.699 0-2.418.053-2.418.053l-.054-.053v-.51c0-.135.08-.216.215-.216 1.182-.08 1.854-.295 2.606-2.015l5.964-13.97c.296-.698.51-.967.914-.967zM86.75 5.266s2.123.053 2.956.053h.106c.803-.004 2.688-.053 2.688-.053l.026.053v.591c0 .081-.053.135-.16.135l-.565.054c-.833.08-1.128.295-1.128.832v8.947c0 .59.268.94 1.128 1.02l.564.054c.08 0 .161.054.161.161v.565l-.026.053s-2.042-.053-2.875-.053h-.11c-.828.004-2.738.053-2.738.053l-.054-.053v-.565c0-.107.081-.16.189-.16l.537-.054c.886-.081 1.155-.51 1.155-1.021V6.93c0-.59-.322-.752-1.155-.832l-.537-.054c-.108 0-.189-.027-.189-.108V5.32zm-49.764 0s2.123.053 2.956.053h.106c.803-.004 2.688-.053 2.688-.053l.026.053v.591c0 .081-.053.135-.16.135l-.565.054c-.833.08-1.128.295-1.128.832v8.947c0 .59.268.94 1.128 1.02l.564.054c.08 0 .161.054.161.161v.565l-.026.053s-2.042-.053-2.875-.053h-.11c-.828.004-2.738.053-2.738.053l-.054-.053v-.565c0-.107.081-.16.189-.16l.537-.054c.886-.081 1.155-.51 1.155-1.021V6.93c0-.59-.322-.752-1.155-.832l-.537-.054c-.108 0-.189-.027-.189-.108V5.32zm13.146 0c3.815 0 4.513 1.88 4.513 3.277 0 1.612-.78 4.138-4.594 4.138-.672 0-1.209-.054-1.693-.27v3.6c0 .592.323.726 1.183.86l.537.081c.107.027.188.054.188.161v.565l-.027.053s-2.15-.053-2.982-.053h-.11c-.821.004-2.657.053-2.657.053l-.027-.053v-.565c0-.107.054-.134.161-.16l.564-.081c.833-.108 1.102-.35 1.102-.86V6.985c0-.833-.35-.86-1.612-.94-.161 0-.188-.08-.188-.135v-.617l.054-.027c.403 0 1.988.053 2.767.053.752 0 1.827-.053 2.82-.053zm8.365 0s2.364.053 4.406.053h3.803c.86-.005 2.59-.053 2.59-.053l.055.053c.026 1.156.215 2.203.403 3.224l-.672.108c-.296-.994-.806-2.418-2.525-2.418h-1.881c-.51 0-.78.161-.78.618v4.19h1.64c.725 0 .913-.322 1.047-.859l.135-.564c.027-.108.08-.161.161-.161h.457c.053 0 .08.027.08.08-.053.618-.16 1.37-.16 2.015 0 .672.08 1.21.16 1.854l-.053.054h-.484c-.107 0-.161-.08-.188-.135l-.108-.59c-.134-.565-.349-.834-1.047-.834h-1.64v4.192c0 .51.323.671.78.671h1.907c1.64 0 2.257-1.074 2.66-2.418l.699.08c-.323 1.317-.538 2.392-.565 3.252h-6.6c-1.045.005-2.507.053-2.507.053l-.027-.053v-.591c0-.054.027-.135.134-.135l.457-.053c.86-.108 1.102-.323 1.102-.86v-4.164h-3.01c-.51 0-.67.134-.778.349l-1.935 3.869c-.241.483.08.564.887.806l.269.053c.08.027.16.08.16.161v.565l-.026.053s-2.203-.053-2.714-.053c-.51 0-1.612.053-1.612.053l-.026-.053v-.565c0-.08.053-.16.16-.16.887-.081 1.398-.538 1.613-.914.537-.86 1.773-3.143 2.606-4.755.43-.86 1.96-3.923 1.96-4.675 0-.322-.187-.484-.886-.564-.16-.027-.16-.08-.16-.108V5.32zm13.194 0s2.364.053 2.848.053c.51 0 2.847-.053 3.546-.053 4.486 0 6.69 2.794 6.69 6.367 0 4.701-3.332 6.098-6.314 6.098-2.15 0-3.09-.053-3.922-.053-.806 0-2.848.053-2.848.053l-.027-.053v-.565c0-.08.054-.16.161-.16l.618-.054c.806-.081 1.075-.323 1.075-1.156V6.878c0-.699-.188-.699-1.075-.78l-.59-.053c-.108 0-.189-.054-.189-.135v-.59zm5.615.779c-1.048 0-1.72.161-1.72.833v8.865c0 .753.188 1.21 2.23 1.21 2.955 0 4.621-1.102 4.621-4.863 0-2.794-.618-6.045-5.131-6.045zm-27.336 0c-1.29 0-1.612.242-1.612.94v4.675c.538.215 1.21.241 1.747.241 1.612 0 2.39-.967 2.39-3.035 0-2.31-1.047-2.821-2.525-2.821zm11.375 0c-.269 0-.618.43-.914 1.074l-1.585 3.654c-.027.054-.054.108-.054.134 0 .108.162.135.538.135h2.606V7.173c0-.833-.242-1.128-.591-1.128zM102.503 2.9h-.054l-2.687 6.824c-.107.269.08.35.672.35h4.675L102.503 2.9z"/></svg>
